X: 1
T: Lady Ann Montgomery
R: reel
S: Fiddle Hell Online 2022-3-26 handout for Fiddle Hell jam session
B: the Portland Collection 1 p.130
Z: 2022 John Chambers <jc:trillian.mit.edu>
M: C|
L: 1/8
K: D
|:\
"D"FADA FADA | FAdA "G"BAdA | "D"FADF "A"E3F | DB,A,B, "D"D3D |
"D"FADA FADA | FAdA "G"BABc | "G"dBAF "Em"E3F | "A"DB,A,B, "D"D4 :|
|:\
"D"f3f fede | fedB ABde | f3f "Bm"fede | "Em"fa- af "A"(3efe de |
"D"f3f fede | fedB ABde | "G"fded "Em"BdAd | "A"egfe [1 d3e :|2 "D"d4 |]
